public/about-feature-05.svg

<svg width="100" height="101" viewBox="0 0 100 101" fill="none" xmlns="http://www.w3.org/2000/svg">
<g clip-path="url(#clip0_6511_2295)">
<g clip-path="url(#clip1_6511_2295)">
<g clip-path="url(#clip2_6511_2295)">
<mask id="mask0_6511_2295" style="mask-type:luminance" maskUnits="userSpaceOnUse" x="1" y="0" width="99" height="100">
<path d="M99.7307 0.97998H1.08203V99.6287H99.7307V0.97998Z" fill="white"/>
</mask>
<g mask="url(#mask0_6511_2295)">
<path d="M20.7148 24.5515V50.9801C25.7148 49.3134 38.0006 48.9801 47.1434 60.9801C49.2863 65.5039 52.7148 75.9801 49.2863 81.6944L59.2863 87.4087V44.5515L20.7148 24.5515Z" fill="#FDC040"/>
<path d="M98.7311 22.3158L60.3108 1.21884C59.7336 0.901987 59.0337 0.901987 58.4564 1.21884L43.9751 9.17038C43.6696 9.25091 43.3843 9.40445 43.148 9.62497L20.0369 22.3158C19.4206 22.6537 19.0374 23.301 19.0374 24.0047V49.5204C15.1389 50.7397 11.5661 52.8898 8.59544 55.8613C0.852388 63.6036 -1.12176 75.4123 3.68303 85.2454C4.14965 86.2013 5.30344 86.598 6.25928 86.1306C7.21587 85.6631 7.61175 84.5094 7.14513 83.5536C3.06287 75.1986 4.74047 65.1653 11.32 58.5858C15.4346 54.4711 20.9047 52.205 26.7233 52.205C32.5419 52.205 38.012 54.4711 42.1266 58.5858C46.2404 62.6997 48.5067 68.1698 48.5067 73.9884C48.5067 79.807 46.2404 85.2771 42.1259 89.3917C35.5464 95.9711 25.513 97.6488 17.1581 93.5666C16.2023 93.0991 15.0484 93.4958 14.5819 94.4516C14.1145 95.4083 14.5104 96.562 15.467 97.0286C19.0487 98.7793 22.8917 99.6297 26.7067 99.6297C33.3623 99.629 39.929 97.0384 44.8511 92.1163C47.1083 89.8591 48.892 87.255 50.1541 84.4243L58.4564 88.983C58.7454 89.1418 59.0646 89.2208 59.3837 89.2208C59.7027 89.2208 60.0227 89.1418 60.3108 88.983L98.7311 67.8868C99.3476 67.5481 99.7306 66.9008 99.7306 66.1978V52.8078C99.7306 51.7437 98.8681 50.8811 97.8038 50.8811C96.7397 50.8811 95.8771 51.7437 95.8771 52.8078V65.0577L61.3164 84.0353V46.2381L72.7226 39.9747V49.9034C72.7226 50.5854 73.0823 51.216 73.6686 51.5623C73.9711 51.7407 74.3098 51.8301 74.6493 51.8301C74.9684 51.8301 75.2883 51.7511 75.578 51.5916L83.811 47.06C84.4267 46.7213 84.8083 46.0748 84.8083 45.3727V33.3381L95.8771 27.2606V37.3947C95.8771 38.459 96.7397 39.3216 97.8038 39.3216C98.8681 39.3216 99.7306 38.459 99.7306 37.3947V24.0047C99.7306 23.3017 99.3476 22.6537 98.7311 22.3158ZM59.3837 5.10542L93.8007 24.0047L82.944 29.9663L48.527 11.067L59.3837 5.10542ZM59.3837 42.9033L24.9667 24.0047L36.2214 17.8241L70.6393 36.7227L59.3837 42.9033ZM74.6417 34.525L40.2247 15.6264L44.5237 13.2654L78.9414 32.164L74.6417 34.525ZM44.8511 55.8613C40.0087 51.0188 33.5707 48.3523 26.7233 48.3523C25.428 48.3523 24.1486 48.4478 22.8909 48.6353V27.2606L57.4637 46.245V84.042L51.463 80.747C52.0538 78.5718 52.3594 76.3034 52.3594 73.9884C52.3594 67.141 49.6929 60.703 44.8511 55.8613ZM80.9556 44.2338L76.576 46.6446V37.8591L80.9556 35.4544V44.2338Z" fill="#3BB77E"/>
<path d="M97.8017 43.1641C97.2953 43.1641 96.7977 43.3703 96.4396 43.7286C96.0813 44.0868 95.875 44.5836 95.875 45.0908C95.875 45.5973 96.0813 46.0941 96.4396 46.4523C96.7977 46.8113 97.2953 47.0168 97.8017 47.0168C98.3083 47.0168 98.8057 46.8113 99.164 46.4523C99.5223 46.0941 99.7286 45.5973 99.7286 45.0908C99.7286 44.5836 99.5223 44.0868 99.164 43.7286C98.8057 43.3703 98.3083 43.1641 97.8017 43.1641Z" fill="#3BB77E"/>
<path d="M20.2457 75.914C20.7387 75.914 21.2324 75.7259 21.608 75.3503C22.3605 74.5976 22.3605 73.3776 21.608 72.625L20.2735 71.2899H31.6608C34.423 71.2899 36.6702 73.5372 36.6702 76.2993C36.6702 79.0615 34.423 81.3089 31.6608 81.3089H24.9134C23.8492 81.3089 22.9867 82.1713 22.9867 83.2356C22.9867 84.299 23.8492 85.1616 24.9134 85.1616H31.6608C36.5477 85.1616 40.5238 81.1862 40.5238 76.2993C40.5238 71.4125 36.5477 67.4372 31.6608 67.4372H20.2735L21.608 66.1019C22.3605 65.3493 22.3605 64.1293 21.608 63.3767C20.856 62.6247 19.636 62.6247 18.8834 63.3767L14.2592 68.0009C13.5073 68.7535 13.5073 69.9735 14.2592 70.7262L18.8834 75.3495C19.2597 75.7259 19.7527 75.914 20.2457 75.914Z" fill="#3BB77E"/>
<path d="M9.95918 92.6828C9.41127 92.6828 8.86711 92.4495 8.48704 91.997L8.48328 91.9926C7.79838 91.1782 7.90375 89.9635 8.7181 89.2786C9.53244 88.5929 10.7479 88.6983 11.4328 89.5126C12.117 90.3278 12.0139 91.5448 11.1995 92.2296C10.8375 92.5338 10.3972 92.6828 9.95918 92.6828Z" fill="#3BB77E"/>
</g>
</g>
</g>
</g>
<defs>
<clipPath id="clip0_6511_2295">
<rect width="100" height="100" fill="white" transform="translate(0 0.97998)"/>
</clipPath>
<clipPath id="clip1_6511_2295">
<rect width="100" height="100" fill="white" transform="translate(0 0.97998)"/>
</clipPath>
<clipPath id="clip2_6511_2295">
<rect width="100" height="100" fill="white" transform="translate(0 0.97998)"/>
</clipPath>
</defs>
</svg>

<svg xmlns="http://www.w3.org/2000/svg" width="100" height="101" fill="none"><g clip-path="url(#a)"><g clip-path="url(#b)"><g clip-path="url(#c)"><mask id="d" width="99" height="100" x="1" y="0" maskUnits="userSpaceOnUse" style="mask-type:luminance"><path fill="#fff" d="M99.73.98H1.083v98.649h98.649z"/></mask><g mask="url(#d)"><path fill="#FDC040" d="M20.715 24.552V50.98c5-1.667 17.286-2 26.428 10 2.143 4.524 5.572 15 2.143 20.714l10 5.715V44.55z"/><path fill="#3BB77E" d="M98.731 22.316 60.311 1.219a1.93 1.93 0 0 0-1.855 0L43.976 9.17c-.306.08-.592.234-.828.455l-23.111 12.69c-.616.339-1 .986-1 1.69V49.52a25.5 25.5 0 0 0-10.442 6.341 25.64 25.64 0 0 0-4.912 29.384 1.926 1.926 0 1 0 3.462-1.691 21.79 21.79 0 0 1 4.175-24.968 21.64 21.64 0 0 1 15.403-6.381 21.64 21.64 0 0 1 15.404 6.38 21.64 21.64 0 0 1 6.38 15.403 21.64 21.64 0 0 1-6.381 15.404 21.79 21.79 0 0 1-24.968 4.175 1.926 1.926 0 1 0-1.691 3.462 25.56 25.56 0 0 0 11.24 2.6 25.65 25.65 0 0 0 18.144-7.513 25.6 25.6 0 0 0 5.303-7.692l8.302 4.559a1.92 1.92 0 0 0 1.855 0l38.42-21.096c.617-.339 1-.986 1-1.69v-13.39a1.927 1.927 0 1 0-3.854 0v12.25l-34.56 18.978V46.238l11.406-6.263v9.928a1.926 1.926 0 0 0 2.855 1.689l8.233-4.532c.616-.339.997-.985.997-1.687V33.338l11.07-6.077v10.134a1.927 1.927 0 1 0 3.853 0v-13.39c0-.703-.383-1.351-1-1.69M59.384 5.106 93.8 24.004l-10.857 5.961-34.417-18.899zm0 37.797L24.967 24.005l11.254-6.18L70.64 36.722zm15.258-8.378L40.225 15.626l4.299-2.36L78.94 32.163zm-29.79 21.336c-4.843-4.842-11.281-7.509-18.129-7.509q-1.944.001-3.832.283V27.261l34.573 18.984v37.797l-6.001-3.295c.59-2.175.896-4.444.896-6.759 0-6.847-2.666-13.285-7.508-18.127m36.104-11.627-4.38 2.41V37.86l4.38-2.405z"/><path fill="#3BB77E" d="M97.802 43.164c-.507 0-1.004.206-1.362.565a1.94 1.94 0 0 0-.565 1.362c0 .506.206 1.003.565 1.361.358.36.855.565 1.362.565.506 0 1.004-.206 1.362-.565a1.94 1.94 0 0 0 .565-1.361 1.94 1.94 0 0 0-.565-1.362 1.94 1.94 0 0 0-1.362-.565M20.246 75.914a1.927 1.927 0 0 0 1.362-3.289l-1.335-1.335h11.388a5.015 5.015 0 0 1 5.01 5.01 5.015 5.015 0 0 1-5.01 5.009h-6.748a1.926 1.926 0 1 0 0 3.853h6.748c4.887 0 8.863-3.976 8.863-8.863s-3.976-8.862-8.863-8.862H20.273l1.335-1.335a1.927 1.927 0 0 0-2.725-2.725L14.26 68a1.93 1.93 0 0 0 0 2.725l4.624 4.624c.377.376.87.564 1.363.564M9.96 92.683a1.92 1.92 0 0 1-1.473-.686l-.004-.004a1.926 1.926 0 1 1 2.95-2.48 1.93 1.93 0 0 1-1.474 3.17"/></g></g></g></g><defs><clipPath id="a"><path fill="#fff" d="M0 .98h100v100H0z"/></clipPath><clipPath id="b"><path fill="#fff" d="M0 .98h100v100H0z"/></clipPath><clipPath id="c"><path fill="#fff" d="M0 .98h100v100H0z"/></clipPath></defs></svg>
